src/icons/svg/template.svg

<?xml version="1.0" encoding="UTF-8"?>
<svg width="40px" height="40px" viewBox="0 0 40 40" version="1.1" xmlns="http://www.w3.org/2000/svg"
>
    <path d="M38.4,1.51394049e-15 L1.59999997,1.51394049e-15 C0.715454532,1.51394049e-15 1.51394049e-15,0.714545455 1.51394049e-15,1.59999997 L1.51394049e-15,38.4 C1.51394049e-15,39.2854546 0.714545455,40 1.59999997,40 L38.4,40 C39.2854546,40 40,39.2854545 40,38.4 L40,1.59999997 C40,0.715454532 39.2854545,1.51394049e-15 38.4,1.51394049e-15 Z M3.6,3.6 L10.4,3.6 L10.4,36.4 L3.6,36.4 L3.6,3.6 Z M36.4,36.4 L13.6,36.4 L13.6,13.6 L36.4,13.6 L36.4,36.4 Z M13.6,10.4 L13.6,3.6 L36.4,3.6 L36.4,10.4 L13.6,10.4 L13.6,10.4 Z"
          id="形状"></path>
</svg>

<svg width="40" height="40" xmlns="http://www.w3.org/2000/svg"><path d="M38.4 0H1.6C.715 0 0 .715 0 1.6v36.8c0 .885.715 1.6 1.6 1.6h36.8c.885 0 1.6-.715 1.6-1.6V1.6c0-.885-.715-1.6-1.6-1.6zM3.6 3.6h6.8v32.8H3.6V3.6zm32.8 32.8H13.6V13.6h22.8v22.8zm-22.8-26V3.6h22.8v6.8H13.6z"/></svg>
